X:1390
T:Mountain Top, The
M:C|
L:1/8
R:reel
D:Dan: Think Before You Think
Z:Devin McCabe
K:G
B2AG EGDE|G2 B/2c/2d e~g3|BGAG EGDG|B~A3 B~G3:|
!B~d3 Bdgd|B/2c/2d ef gfed|B~d3 Bdge|dBAc B~G3|
!B~d3 Bdgd|B/2c/2d ef ~g3a|bgaf gfed|e/2f/2g fa gedc||
